X: 525
T: Dalında Solarken Akşamın Gülü
C: Ârif Sâmi Toker
O: Turkey
F: http://compmusic.upf.edu/node/140
N: ussak--sarki--duyek--dalinda_solarken--arif_sami_toker
N: makam= ussak
N: form= sarki
N: usul= duyek = 8/4
M: 8/4
L: 1/16
K: C _2/4B   
Q: 1/4=144
%%MIDI tuningsystem comma53
z2 c2 B2 A2 G2 ^F2 E2 D2  | E2 G2 ^F2 A2 G2 B2 A2 c2  | \
w:   |   | 
B2 f2 e2 d2 c2 B2 A2 G2  | 
w:   | 
d16  | z2 ^fe f2 g2 z2 ed e2 =f2  | d2 f2 e2 d2 c2 B2 A2 G2  | \
w:   |   |   | 
z2 c2 B2 d2 c2 B2 B2 A2  | 
w:   | 
A6 Bc d2 cB A4  | z2 c2 B2 A2 G2 ^F2 E2 D2  | \
w:   |   | 
E2 G2 ^F2 A2 G2 B2 A2 c2  | 
w:   | 
B2 f2 e2 d2 c2 B2 A2 G2  | d16  | z2 ^fe f2 g2 z2 ed e2 =f2  | \
w:   |   |   | 
d2 f2 e2 d2 c2 B2 A2 G2  | 
w:   | 
z2 c2 B2 d2 c2 B2 B2 A2  | A6 Bc d2 cB A4  | \
w:   |   | 
G2 A6 A4 A4  | c2 BA B2 c2 A8  | 
w:  Da lın da  so  |  lar *  *  *  *  ken_  | 
d4 e2 d2 d2 c2 e2 d2  | d8 cB AB A4  | \
w:  ak şa *  mın  *  gü  |  lü   SAZ  | 
G2 A6 A4 A4  | c2 BA B2 c2 A8  | 
w:  Da lın da  so  |  lar *  *  *  *  ken_  | 
d4 e2 d2 d2 c2 e2 d2  | c6 G2 A2 B2 c4  | \
w:  ak şa *  mın  *  gü  |  lü   SAZ  | 
c2 c6 c2 B2 B2 A2  | (3B2A2B2 (3c2B2c2 d8  | 
w:  U fuk tan  *  çö  |  zül *  *  *  *  *  müş   | 
c2 B4 A2 _7/8B3A G2 ^F2  | G6 GA _7/8BA G^F G4  | \
w:  gü ne *  şin  *  tü  |  lü   SAZ  | 
c2 c6 c2 B2 B2 A2  | 
w:  U fuk tan  *  çö  | 
(3B2A2B2 (3c2B2c2 d8  | c2 B4 c2 B3A G2 A2  | \
w:  zül *  *  *  *  *  müş   |  gü ne *  şin  *  tü  | 
A6 d2 c2 d2 e4  | d4 e4 e4 e4  | 
w:  lü   SAZ  |  Din ler ken  kır  | 
g2 ^fe f2 g2 e6 d2  | g2 g4 ^f2 f2 e2 e2 d2  | \
w:  lar *  *  *  *  da   |  ya nık  *  bül *  bü  | 
g12 z4  | g4 g2 ^f2 f2 e2 e4  | 
w:  lü    |  Din ler *  ken  *  kır  | 
a2 g2 f2 e2 e2 d4 c2  | g2 e4 d2 d2 c2 e2 d2  | \
w:  lar *  *  *  da   |  ya nık  *  bül *  bü  | 
d6 A2 B2 c2 d4  | z2 c4 c2 c2 B2 B2 A2  | 
w:  lü   SAZ  |  İç me sem  *  bir   | 
(3B2A2B2 (3c2B2c2 d8  | c4 B2 A2 _7/8B3A G2 ^F2  | \
w:  tür *  *  *  *  *  lü   |  iç sem  *  bir  *  tür  | 
G6 GA _7/8BA G^F G4  | 
w:  lü   SAZ  | 
z2 c4 c2 c2 B2 B2 A2  | (3B2A2B2 (3c2B2c2 d8  | \
w:  İç me sem  *  bir   |  tür *  *  *  *  *  lü   | 
c4 B2 c2 B3A G2 A2  | 
w:  iç sem  *  bir  *  tür  | 
A8 z8  | |


